svg/24/logo-siri.svg

<svg width="24" height="24" viewBox="0 0 24 24" fill="currentColor" xmlns="http://www.w3.org/2000/svg"><path d="M12 22C13.366 22 14.652 21.7386 15.8578 21.2157C17.0637 20.6928 18.1275 19.9706 19.049 19.049C19.9706 18.1275 20.6928 17.0637 21.2157 15.8578C21.7386 14.652 22 13.366 22 12C22 10.634 21.7386 9.34804 21.2157 8.14216C20.6928 6.93627 19.9706 5.87255 19.049 4.95098C18.1275 4.02941 17.0621 3.30719 15.8529 2.78431C14.6438 2.26144 13.3562 2 11.9902 2C10.6242 2 9.33824 2.26144 8.13235 2.78431C6.92647 3.30719 5.86438 4.02941 4.94608 4.95098C4.02778 5.87255 3.30719 6.93627 2.78431 8.14216C2.26144 9.34804 2 10.634 2 12C2 13.366 2.26144 14.652 2.78431 15.8578C3.30719 17.0637 4.02941 18.1275 4.95098 19.049C5.87255 19.9706 6.93627 20.6928 8.14216 21.2157C9.34804 21.7386 10.634 22 12 22ZM12 20.3333C11.0392 20.3333 10.1291 20.1797 9.26961 19.8725C8.41013 19.5654 7.62909 19.134 6.92647 18.5784C6.22386 18.0229 5.63072 17.3758 5.14706 16.6373C5.38235 16.7614 5.63889 16.8578 5.91667 16.9265C6.19444 16.9951 6.48693 17.0294 6.79412 17.0294C7.69608 17.0294 8.53922 16.8824 9.32353 16.5882C10.1078 16.2941 10.8464 15.9134 11.5392 15.4461C12.232 14.9788 12.8824 14.4869 13.4902 13.9706L12.3824 12.9216C11.8333 13.3856 11.2663 13.817 10.6814 14.2157C10.0964 14.6144 9.48203 14.9363 8.83824 15.1814C8.19444 15.4265 7.51307 15.549 6.79412 15.549C5.79412 15.549 4.98366 15.2239 4.36275 14.5735C3.74183 13.9232 3.43137 13.0654 3.43137 12C3.43137 10.9346 3.74183 10.0768 4.36275 9.42647C4.98366 8.77614 5.79412 8.45098 6.79412 8.45098C7.54575 8.45098 8.2598 8.62418 8.93627 8.97059C9.61275 9.31699 10.268 9.76307 10.902 10.3088C11.5359 10.8546 12.1634 11.4346 12.7843 12.049C13.4052 12.6634 14.0294 13.2435 14.6569 13.7892C15.2843 14.335 15.933 14.781 16.6029 15.1275C17.2729 15.4739 17.9739 15.6471 18.7059 15.6471C18.8758 15.6471 19.0327 15.6275 19.1765 15.5882C19.3203 15.549 19.4542 15.4967 19.5784 15.4314C19.2582 16.1503 18.8431 16.8105 18.3333 17.4118C17.8235 18.0131 17.2402 18.531 16.5833 18.9657C15.9265 19.4003 15.2108 19.7369 14.4363 19.9755C13.6618 20.2141 12.8497 20.3333 12 20.3333ZM11.9902 3.66667C12.8856 3.66667 13.7402 3.79902 14.5539 4.06373C15.3676 4.32843 16.1144 4.70098 16.7941 5.18137C17.4739 5.66176 18.0686 6.23203 18.5784 6.89216C19.0882 7.55229 19.4869 8.27451 19.7745 9.05882C19.6373 8.99346 19.4853 8.94281 19.3186 8.90686C19.152 8.87091 18.9771 8.85294 18.7941 8.85294C18.1144 8.85294 17.4559 9.03268 16.8186 9.39216C16.1814 9.75163 15.5458 10.1928 14.9118 10.7157L16.0196 11.7745C16.634 11.2778 17.152 10.9134 17.5735 10.6814C17.9951 10.4493 18.402 10.3333 18.7941 10.3333C19.3562 10.3333 19.7859 10.5098 20.0833 10.8627C20.3807 11.2157 20.5294 11.6307 20.5294 12.1078C20.5294 12.6438 20.3758 13.1209 20.0686 13.5392C19.7614 13.9575 19.3072 14.1667 18.7059 14.1667C18.1961 14.1667 17.6879 14.0278 17.1814 13.75C16.6748 13.4722 16.1585 13.1013 15.6324 12.6373C15.1062 12.1732 14.5523 11.6601 13.9706 11.098C13.4739 10.6209 12.9592 10.1405 12.4265 9.65686C11.8938 9.1732 11.3317 8.72876 10.7402 8.32353C10.1487 7.9183 9.52614 7.5915 8.87255 7.34314C8.21895 7.09477 7.52614 6.97059 6.79412 6.97059C6.48039 6.97059 6.18464 7.0049 5.90686 7.07353C5.62909 7.14216 5.37255 7.23856 5.13725 7.36275C5.62092 6.62418 6.21242 5.97712 6.91176 5.42157C7.61111 4.86601 8.39216 4.43464 9.2549 4.12745C10.1176 3.82026 11.0294 3.66667 11.9902 3.66667Z"/></svg>

<svg xmlns="http://www.w3.org/2000/svg" width="24" height="24" fill="currentColor" viewBox="0 0 24 24">
  <path d="M12 22a9.591 9.591 0 0 0 3.858-.784 10.221 10.221 0 0 0 3.191-2.167 10.221 10.221 0 0 0 2.167-3.191A9.591 9.591 0 0 0 22 12a9.592 9.592 0 0 0-.784-3.858 10.222 10.222 0 0 0-2.167-3.191 10.205 10.205 0 0 0-3.196-2.167A9.627 9.627 0 0 0 11.99 2a9.593 9.593 0 0 0-3.858.784 10.264 10.264 0 0 0-5.348 5.358A9.592 9.592 0 0 0 2 12c0 1.366.261 2.652.784 3.858a10.221 10.221 0 0 0 2.167 3.191 10.222 10.222 0 0 0 3.191 2.167A9.592 9.592 0 0 0 12 22Zm0-1.667c-.96 0-1.87-.153-2.73-.46a8.196 8.196 0 0 1-2.344-1.295 8.162 8.162 0 0 1-1.779-1.94 3.572 3.572 0 0 0 1.647.391c.902 0 1.745-.147 2.53-.44a10.612 10.612 0 0 0 2.215-1.143 22.28 22.28 0 0 0 1.951-1.475l-1.108-1.05a20.69 20.69 0 0 1-1.7 1.295c-.586.398-1.2.72-1.844.965a5.696 5.696 0 0 1-2.044.368c-1 0-1.81-.325-2.431-.976-.621-.65-.932-1.508-.932-2.573s.31-1.923.932-2.574c.62-.65 1.431-.975 2.431-.975.752 0 1.466.173 2.142.52a10.02 10.02 0 0 1 1.966 1.338 37.01 37.01 0 0 1 1.882 1.74 39.917 39.917 0 0 0 1.873 1.74 9.904 9.904 0 0 0 1.946 1.338 4.52 4.52 0 0 0 2.103.52c.17 0 .327-.02.47-.059a1.92 1.92 0 0 0 .402-.157A8.256 8.256 0 0 1 12 20.333Zm-.01-16.666c.896 0 1.75.132 2.564.397a8.28 8.28 0 0 1 4.024 2.828c.51.66.909 1.383 1.197 2.167a2.073 2.073 0 0 0-.456-.152 2.482 2.482 0 0 0-.525-.054c-.68 0-1.338.18-1.975.54-.638.359-1.273.8-1.907 1.323l1.108 1.059c.614-.497 1.132-.862 1.553-1.094.422-.232.829-.348 1.221-.348.562 0 .992.177 1.29.53.297.353.445.768.445 1.245 0 .536-.153 1.013-.46 1.431-.308.418-.762.628-1.363.628-.51 0-1.018-.14-1.525-.417a8.676 8.676 0 0 1-1.549-1.113 49.982 49.982 0 0 1-1.661-1.539 75.166 75.166 0 0 0-1.544-1.441 15.739 15.739 0 0 0-1.687-1.333 8.872 8.872 0 0 0-1.867-.98 5.801 5.801 0 0 0-2.079-.373c-.314 0-.61.034-.887.103a3.377 3.377 0 0 0-.77.289 8.21 8.21 0 0 1 1.775-1.941 8.113 8.113 0 0 1 5.078-1.755Z"/>
</svg>
